X:4769
L:1/8
M:2/2
K:G
 (3DEF | G2 BG dGBG | FDAD BDAD | G2 BG dGBd | egfa gedB | G2 BG dGBG | FDAD BDAD | G2 BG dGBd | 
 egfa g2 g2 |: gdBd edBd | gabg fdef | gdBd edBd | egfa g2 g2 | gabg efge | dedc BGBd | efed edBd | 
 egfa g2 g2 :|

